Newaita-dark/emblems/48/emblem-urgent.svg

<svg height="48" viewBox="0 0 48 48" width="48" xmlns="http://www.w3.org/2000/svg"><path d="m960.065849 215.097581c-398.387174 0-718.986496 320.599322-718.986496 718.829031v42.358162c0 398.229708 320.599322 718.82903 718.986496 718.82903 398.229709 0 718.829031-320.599322 718.829031-718.82903v-42.358162c0-398.229709-320.599322-718.829031-718.829031-718.829031zm0 122.350527c332.409219 0 599.94274 267.690986 599.94274 600.100205v35.272224c0 332.409219-267.533521 599.94274-599.94274 599.94274s-600.100205-267.533521-600.100205-599.94274v-35.272224c0-332.409219 267.690986-600.100205 600.100205-600.100205zm-1.259722 116.996708c-43.932815.629861-79.047574 36.689411-78.417713 80.622226v440.115475c0 18.580903 6.456077 36.531946 18.423439 50.861287l199.980913 239.977096c18.108508 22.360071 46.76719 33.382641 75.110942 28.501217 28.343751-4.723959 51.963544-24.40712 61.726392-51.333684 9.762847-27.084029 4.251562-57.317364-14.486807-79.047573l-181.557474-217.774491v-411.299327c.31493-21.415279-8.03073-42.200697-23.304863-57.474829-15.274133-15.116668-35.902085-23.619793-57.474829-23.147397zm0 0" fill="none" stroke="#424242" stroke-linejoin="round" stroke-width="309.921265" transform="scale(.0248071)"/><path d="m23.816406 8.3125c8.765625 0 15.875 7.109375 15.875 15.878906 0 8.765625-7.109375 15.875-15.875 15.875-8.769531 0-15.878906-7.109375-15.878906-15.875 0-8.769531 7.109375-15.878906 15.878906-15.878906zm0 0" fill="#424242"/><path d="m23.816406 5.335938c-9.882812 0-17.835937 7.953124-17.835937 17.832031v1.050781c0 9.878906 7.953125 17.832031 17.835937 17.832031 9.878906 0 17.832032-7.953125 17.832032-17.832031v-1.050781c0-9.878907-7.953126-17.832031-17.832032-17.832031zm0 3.035156c8.246094 0 14.882813 6.640625 14.882813 14.886718v.875c0 8.246094-6.636719 14.882813-14.882813 14.882813s-14.886718-6.636719-14.886718-14.882813v-.875c0-8.246093 6.640624-14.886718 14.886718-14.886718zm-.03125 2.902344c-1.089844.015624-1.960937.910156-1.945312 2v10.917968c0 .460938.160156.90625.457031 1.261719l4.960937 5.953125c.449219.554688 1.160157.828125 1.863282.707031.703125-.117187 1.289062-.605469 1.53125-1.273437.242187-.671875.105468-1.421875-.359375-1.960938l-4.503907-5.402344v-10.203124c.007813-.53125-.199218-1.046876-.578124-1.425782-.378907-.375-.890626-.585937-1.425782-.574218zm0 0" fill="#fafafa"/></svg>

<?xml version="1.0" encoding="UTF-8"?>
<svg xmlns="http://www.w3.org/2000/svg" xmlns:xlink="http://www.w3.org/1999/xlink" width="48px" height="48px" viewBox="0 0 48 48" version="1.1">
<g id="surface1">
<path style="fill:none;stroke-width:309.921265;stroke-linecap:butt;stroke-linejoin:round;stroke:rgb(25.882354%,25.882354%,25.882354%);stroke-opacity:1;stroke-miterlimit:4;" d="M 960.065849 215.097581 C 561.678675 215.097581 241.079353 535.696903 241.079353 933.926612 L 241.079353 976.284774 C 241.079353 1374.514482 561.678675 1695.113804 960.065849 1695.113804 C 1358.295558 1695.113804 1678.89488 1374.514482 1678.89488 976.284774 L 1678.89488 933.926612 C 1678.89488 535.696903 1358.295558 215.097581 960.065849 215.097581 Z M 960.065849 337.448108 C 1292.475068 337.448108 1560.008589 605.139094 1560.008589 937.548313 L 1560.008589 972.820537 C 1560.008589 1305.229756 1292.475068 1572.763277 960.065849 1572.763277 C 627.65663 1572.763277 359.965644 1305.229756 359.965644 972.820537 L 359.965644 937.548313 C 359.965644 605.139094 627.65663 337.448108 960.065849 337.448108 Z M 958.806127 454.444816 C 914.873312 455.074677 879.758553 491.134227 880.388414 535.067042 L 880.388414 975.182517 C 880.388414 993.76342 886.844491 1011.714463 898.811853 1026.043804 L 1098.792766 1266.0209 C 1116.901274 1288.380971 1145.559956 1299.403541 1173.903708 1294.522117 C 1202.247459 1289.798158 1225.867252 1270.114997 1235.6301 1243.188433 C 1245.392947 1216.104404 1239.881662 1185.871069 1221.143293 1164.14086 L 1039.585819 946.366369 L 1039.585819 535.067042 C 1039.900749 513.651763 1031.555089 492.866345 1016.280956 477.592213 C 1001.006823 462.475545 980.378871 453.97242 958.806127 454.444816 Z M 958.806127 454.444816 " transform="matrix(0.0248071,0,0,0.0248071,0,0)"/>
<path style=" stroke:none;fill-rule:nonzero;fill:rgb(25.882354%,25.882354%,25.882354%);fill-opacity:1;" d="M 23.816406 8.3125 C 32.582031 8.3125 39.691406 15.421875 39.691406 24.191406 C 39.691406 32.957031 32.582031 40.066406 23.816406 40.066406 C 15.046875 40.066406 7.9375 32.957031 7.9375 24.191406 C 7.9375 15.421875 15.046875 8.3125 23.816406 8.3125 Z M 23.816406 8.3125 "/>
<path style=" stroke:none;fill-rule:nonzero;fill:rgb(98.039216%,98.039216%,98.039216%);fill-opacity:1;" d="M 23.816406 5.335938 C 13.933594 5.335938 5.980469 13.289062 5.980469 23.167969 L 5.980469 24.21875 C 5.980469 34.097656 13.933594 42.050781 23.816406 42.050781 C 33.695312 42.050781 41.648438 34.097656 41.648438 24.21875 L 41.648438 23.167969 C 41.648438 13.289062 33.695312 5.335938 23.816406 5.335938 Z M 23.816406 8.371094 C 32.0625 8.371094 38.699219 15.011719 38.699219 23.257812 L 38.699219 24.132812 C 38.699219 32.378906 32.0625 39.015625 23.816406 39.015625 C 15.570312 39.015625 8.929688 32.378906 8.929688 24.132812 L 8.929688 23.257812 C 8.929688 15.011719 15.570312 8.371094 23.816406 8.371094 Z M 23.785156 11.273438 C 22.695312 11.289062 21.824219 12.183594 21.839844 13.273438 L 21.839844 24.191406 C 21.839844 24.652344 22 25.097656 22.296875 25.453125 L 27.257812 31.40625 C 27.707031 31.960938 28.417969 32.234375 29.121094 32.113281 C 29.824219 31.996094 30.410156 31.507812 30.652344 30.839844 C 30.894531 30.167969 30.757812 29.417969 30.292969 28.878906 L 25.789062 23.476562 L 25.789062 13.273438 C 25.796875 12.742188 25.589844 12.226562 25.210938 11.847656 C 24.832031 11.472656 24.320312 11.261719 23.785156 11.273438 Z M 23.785156 11.273438 "/>
</g>
</svg>
